public/icons/icon/file.svg

<svg width="30" height="30" viewBox="0 0 30 30" fill="none" xmlns="http://www.w3.org/2000/svg">
<path fill-rule="evenodd" clip-rule="evenodd" d="M7 4C6.44772 4 6 4.44772 6 5V25C6 25.5523 6.44772 26 7 26H23C23.5523 26 24 25.5523 24 25V12H17C16.4477 12 16 11.5523 16 11V4H7ZM18 5.41421L22.5858 10H18V5.41421ZM4 5C4 3.34315 5.34315 2 7 2H17C17.2652 2 17.5196 2.10536 17.7071 2.29289L25.7071 10.2929C25.8946 10.4804 26 10.7348 26 11V25C26 26.6569 24.6569 28 23 28H7C5.34315 28 4 26.6569 4 25V5Z" fill="black"/>
</svg>

<svg xmlns="http://www.w3.org/2000/svg" width="30" height="30" fill="none"><path fill="#000" fill-rule="evenodd" d="M7 4a1 1 0 0 0-1 1v20a1 1 0 0 0 1 1h16a1 1 0 0 0 1-1V12h-7a1 1 0 0 1-1-1V4H7Zm11 1.414L22.586 10H18V5.414ZM4 5a3 3 0 0 1 3-3h10a1 1 0 0 1 .707.293l8 8A1 1 0 0 1 26 11v14a3 3 0 0 1-3 3H7a3 3 0 0 1-3-3V5Z" clip-rule="evenodd"/></svg>
